X:84
T:Waltz
O:No 84 Wm Clarke MS  Feltwell, Norfolk
N:In MS each group of 6 notes is beamed together
I:abc2nwc
M:3/4
L:1/8
K:D
df|aa ^ga ba|ff ^ef gf|f2eA ce|b2aA df|
aa ^ga ba|ff ^ef gf|f2eA ce|d2z:|
|:Ad|fe ^de cA|fe ^de cA|ba ^ga fd|ba ^ga fd|
fe ^de cA|fe ^de cA|ba ^ga =ge|d2z:|

